X:1
T:A Soul Winner for Jesus
T:A Soul Winner for Jesus
T:James Welch Ferrill
T:James Welch Ferrill, 1907
T:Public Domain Courtesy of the Cyber Hymnal™
T:Public Domain Courtesy of the Cyber Hymnal™
C:James Welch Ferrill
Z:Public Domain
Z:Courtesy of the Cyber Hymnal™
%%score ( 1 2 ) ( 3 4 )
L:1/8
Q:1/4=95
M:4/4
K:Bb
V:1 treble 
V:2 treble 
V:3 bass 
V:4 bass 
V:1
 [DF]2 | [DF]>[DF] [DF]>[DB] [Fd]2 (3[Fd][Fd][Fd] | [GB]>[Gc] [GB]>[EG] [DF]2 [DF]2 | %3
w: 1.~I|want to be a soul win- ner For|Je- sus ev- ery day, He|
w: 2.~I|want to be a soul win- ner And|bring the lost to Christ, That|
w: 3.~I|want to be a soul win- ner Till|Je- sus calls for me, To|
 [DF]2 [FB]2 [DB]2 [Fd]2 | [Fc]6 [EF]2 | [DF]>[DF] [DF]>[DB] [Fd]2 (3[Fd][Fd][Fd] | %6
w: does so much for|me; I|want to aid the lost sin- ner To|
w: they His grace may|know; I|want to live for Christ ev- er, And|
w: lay my bur- dens|down; I|want to hear Him say, ser- vant, “You’ve|
 [GB]>[Gc] [GB]>[EG] [DF]2 (B_A) | [EG]2 [Ec]2 [DB]2 [CA]2 | [DB]6 ||"^Refrain" [DB]2 | %10
w: leave his er- ring way, And *|be from bond- age|free.||
w: do His bless- èd will, Be- *|cause He loves me|so.|A|
w: ga- thered ma- ny sheaves, Re- *|ceive a star- ry|crown.”||
 [Fd]6 (3[DB][Ec][Fd] | [Bf]4 [Fd]2 [^Fc]2 | [GB]6 (3[Gd][GB][FA] | [DF]4 [DB]2 [DF]2 | %14
w: ||||
w: soul win- ner for|Je- sus, A|soul win- ner for|Je- sus, O|
w: ||||
 [DF]2 [FB]2 [DB]2 [Fd]2 | [Fc]6 [DB]2 | [Fd]6 (3[DB][Ec][Fd] | [Bf]4 [Fd]2 [^Fc]2 | %18
w: ||||
w: let me be each|day A|soul win- ner for|Je- sus, A|
w: ||||
 [GB]6 (3[Gc][GB][EG] | [DF]4 [DB]2 (B_A) | [EG]2 [Ec]2 [DB]2 [CA]2 | [DB]6 |] %22
w: ||||
w: soul win- ner for|Je- sus, He’s *|done so much for|me.|
w: ||||
V:2
 x2 | x8 | x8 | x8 | x8 | x8 | x6 F2 | x8 | x6 || x2 | x8 | x8 | x8 | x8 | x8 | x8 | x8 | x8 | x8 | %19
 x6 F2 | x8 | x6 |] %22
V:3
 [B,,B,]2 | [B,,B,]>[B,,B,] [B,,B,]>[B,,F,] [B,,B,]2 (3[B,,B,][B,,B,][B,,B,] | %2
w: ~|~ ~ ~ ~ ~ ~ ~ ~|
 [E,B,]>[E,B,] [E,B,]>[E,B,] [B,,B,]2 [B,,B,]2 | [B,,B,]2 [B,,B,D]2 B,2 B,2 | [F,A,]6 [F,A,]2 | %5
w: ~ ~ ~ ~ ~ ~|~ ~ ~ ~|~ ~|
 [B,,B,]>[B,,B,] [B,,B,]>[B,,F,] [B,,B,]2 (3[B,,B,][B,,B,][D,B,] | %6
w: ~ ~ ~ ~ ~ ~ ~ ~|
 [E,B,]>[E,B,] [E,B,]>[G,B,] B,2 [D,B,]2 | [E,B,]2 [C,B,]2 [F,B,]2 [F,,F,]2 | [B,,F,]6 || %9
w: ~ ~ ~ ~ ~ ~|~ ~ ~ ~|~|
 [B,,B,]2 | [B,,B,]2 (3[B,,B,][B,,B,][B,,B,] [B,,B,]2 [B,,B,]2 | %11
w: A|soul win- ner for Je- sus|
 [B,,B,D]2 [B,,B,D]2 [B,,B,]2 [D,B,]2 | [E,B,]2 (3[E,B,][E,B,][E,B,] [E,B,]2 [E,B,]2 | %13
w: Christ the Lord, A|soul win- ner for Je- sus|
 [B,,B,]2 [B,,B,]2 [B,,B,]2 [D,B,]2 | [B,,B,]2 [B,,D]2 B,2 B,2 | [F,A,]6 [B,,B,]2 | %16
w: Christ the Lord, O|let me be each|day, A|
 [B,,B,]2 (3[B,,B,][B,,B,][B,,B,] [B,,B,]2 [B,,B,]2 | [B,,B,D]2 [B,,B,D]2 [B,,B,]2 [D,B,]2 | %18
w: soul win- ner for Je- sus|Christ the Lord, A|
 [E,B,]2 (3[E,B,][E,B,][E,B,] [E,B,]2 [E,B,]2 | [B,,B,]2 [B,,B,]2 [B,,F,]2 [D,B,]2 | %20
w: soul win- ner for Je- sus|Christ the Lord, *|
 [E,B,]2 [C,B,]2 [F,B,]2 [F,,F,]2 | [B,,F,]6 |] %22
w: ||
V:4
 x2 | x8 | x8 | x4 B,2 B,2 | x8 | x8 | x4 B,2 x2 | x8 | x6 || x2 | x8 | x8 | x8 | x8 | x4 B,2 B,2 | %15
 x8 | x8 | x8 | x8 | x8 | x8 | x6 |] %22

